pk/mail-review.svg

<svg viewBox="0 0 48 48" fill="none" xmlns="http://www.w3.org/2000/svg" height="1em" width="1em">
  <path d="M44 24V40.8182C44 42.0232 43.1046 43 42 43H6C4.89543 43 4 42.0232 4 40.8182V24L24 37L44 24Z" stroke="black" stroke-width="4" stroke-linejoin="round"/>
  <path d="M4 23.784L14 16.8921M44 23.784L34 16.8921" stroke="black" stroke-width="4" stroke-linecap="round" stroke-linejoin="round"/>
  <path d="M34 5H14V29.4146C14 30.0916 14.3424 30.7226 14.91 31.0915L22.91 36.2915C23.5728 36.7223 24.4272 36.7223 25.09 36.2915L33.09 31.0915C33.6576 30.7226 34 30.0916 34 29.4146V5Z" fill="#2F88FF" stroke="black" stroke-width="4" stroke-linejoin="round"/>
  <path d="M20 13H24" stroke="white" stroke-width="4" stroke-linecap="round" stroke-linejoin="round"/>
  <path d="M20 19H28" stroke="white" stroke-width="4" stroke-linecap="round" stroke-linejoin="round"/>
</svg>

<svg viewBox="0 0 48 48" fill="none" xmlns="http://www.w3.org/2000/svg" height="1em" width="1em">
  <path d="M44 24v16.818C44 42.023 43.105 43 42 43H6c-1.105 0-2-.977-2-2.182V24l20 13 20-13Z" stroke="#000" stroke-width="4" stroke-linejoin="round"/>
  <path d="m4 23.784 10-6.892m30 6.892-10-6.892" stroke="#000" stroke-width="4" stroke-linecap="round" stroke-linejoin="round"/>
  <path d="M34 5H14v24.415a2 2 0 0 0 .91 1.677l8 5.2a2 2 0 0 0 2.18 0l8-5.2a2 2 0 0 0 .91-1.677V5Z" fill="#2F88FF" stroke="#000" stroke-width="4" stroke-linejoin="round"/>
  <path d="M20 13h4m-4 6h8" stroke="#fff" stroke-width="4" stroke-linecap="round" stroke-linejoin="round"/>
</svg>
